svg/u0034.svg

<svg viewBox="0 0 128 128" xmlns="http://www.w3.org/2000/svg">
  <linearGradient id="SVGID_1_" gradientTransform="matrix(1 0 0 -1 0 128)" gradientUnits="userSpaceOnUse" x1="62.0089" x2="62.0089" y1="102.808" y2="27.26">
    <stop offset="0" stop-color="#757575"/>
    <stop offset="0.5148" stop-color="#504F4F"/>
  </linearGradient>
  <path d="M82.26,74.91h5.34c1.14,0,2.06,0.92,2.06,2.06v6.07c0,1.14-0.92,2.06-2.06,2.06h-5.34 c-1.14,0-2.06,0.92-2.06,2.06v12.8c0,1.14-0.92,2.06-2.06,2.06h-8.57c-1.14,0-2.06-0.92-2.06-2.06v-12.8c0-1.14-0.92-2.06-2.06-2.06 h-28.8c-1.1,0-2-0.86-2.05-1.96l-0.24-5.11c-0.02-0.42,0.09-0.84,0.32-1.2L66.5,26.97c0.38-0.59,1.03-0.95,1.73-0.95h9.92 c1.14,0,2.06,0.92,2.06,2.06v44.8C80.2,73.99,81.12,74.91,82.26,74.91L82.26,74.91z M51.36,74.91h14.11c1.14,0,2.06-0.92,2.06-2.06 V43.17l-0.94,1.67L49.62,71.76C48.75,73.13,49.74,74.91,51.36,74.91z" fill="url(#SVGID_1_)"/>
</svg>

<svg viewBox="0 0 128 128" xmlns="http://www.w3.org/2000/svg">
  <defs>
    <linearGradient id="SVGID_1_" gradientTransform="matrix(1 0 0 -1 0 0)" gradientUnits="userSpaceOnUse" x1="62.0089" x2="62.0089" y1="-25.192" y2="-100.74">
      <stop offset="0" stop-color="#757575"/>
      <stop offset="0.5148" stop-color="#504F4F"/>
    </linearGradient>
  </defs>
  <path d="M82.26,74.91 L87.6,74.91 C88.74,74.91 89.66,75.83 89.66,76.97 L89.66,83.04 C89.66,84.18 88.74,85.1 87.6,85.1 L82.26,85.1 C81.12,85.1 80.2,86.02 80.2,87.16 L80.2,99.96 C80.2,101.1 79.28,102.02 78.14,102.02 L69.57,102.02 C68.43,102.02 67.51,101.1 67.51,99.96 L67.51,87.16 C67.51,86.02 66.59,85.1 65.45,85.1 L36.65,85.1 C35.55,85.1 34.65,84.24 34.6,83.14 L34.36,78.03 C34.34,77.61 34.45,77.19 34.68,76.83 L66.5,26.97 C66.88,26.38 67.53,26.02 68.23,26.02 L78.15,26.02 C79.29,26.02 80.21,26.94 80.21,28.08 L80.21,72.88 C80.2,73.99 81.12,74.91 82.26,74.91 L82.26,74.91 Z M51.36,74.91 L65.47,74.91 C66.61,74.91 67.53,73.99 67.53,72.85 L67.53,43.17 L66.59,44.84 L49.62,71.76 C48.75,73.13 49.74,74.91 51.36,74.91 Z" fill="url(#SVGID_1_)"/>
</svg>
